assets/img/email.svg

<svg width="96" height="96" fill="none" xmlns="http://www.w3.org/2000/svg"><g clip-path="url(#a)"><path d="M48 76c0-15.48 12.52-28 28-28 4.32 0 8.36 1 12 2.72V24c0-4.4-3.6-8-8-8H16c-4.4 0-8 3.6-8 8v48c0 4.4 3.6 8 8 8h32.32c-.2-1.32-.32-2.64-.32-4ZM16 24l32 20 32-20v8L48 52 16 32v-8Zm53.36 64L55.2 73.84l5.64-5.64 8.48 8.48 16.96-16.96L92 65.36 69.36 88Z" fill="#000"/></g><defs><clipPath id="a"><path fill="#fff" d="M0 0h96v96H0z"/></clipPath></defs></svg>

<svg width="96" height="96" viewBox="0 0 96 96" fill="none" xmlns="http://www.w3.org/2000/svg">
<g clip-path="url(#clip0_87_6)">
<path d="M48 76C48 60.52 60.52 48 76 48C80.32 48 84.36 49 88 50.72V24C88 19.6 84.4 16 80 16H16C11.6 16 8 19.6 8 24V72C8 76.4 11.6 80 16 80H48.32C48.12 78.68 48 77.36 48 76ZM16 24L48 44L80 24V32L48 52L16 32V24ZM69.36 88L55.2 73.84L60.84 68.2L69.32 76.68L86.28 59.72L92 65.36L69.36 88Z" fill="black"/>
</g>
<defs>
<clipPath id="clip0_87_6">
<rect width="96" height="96" fill="white"/>
</clipPath>
</defs>
</svg>
